packages/icons/src/assets/tiktok.svg

<svg width="16" height="16" viewBox="0 0 16 16" fill="currentColor" xmlns="http://www.w3.org/2000/svg">
<path d="M8.61296 1.11476C8.61296 0.775243 8.89827 0.500013 9.25019 0.5C9.60212 0.5 9.88742 0.775236 9.88742 1.11476C9.88742 2.31684 10.3823 3.46973 11.2631 4.31994C12.144 5.17015 13.3388 5.64812 14.5849 5.64868L14.5843 6.87819C13.0003 6.87748 11.4815 6.26992 10.3618 5.18915C10.1922 5.02547 10.034 4.85286 9.88742 4.67266V11.4259H9.88732C9.88575 12.2324 9.63699 13.0146 9.17352 13.6837C8.70805 14.3558 8.04644 14.8796 7.27239 15.1889C6.49833 15.4982 5.64657 15.5792 4.82484 15.4215C4.0031 15.2638 3.24821 14.8746 2.65577 14.3031C2.06333 13.7315 1.65997 13.0033 1.49651 12.2105C1.33306 11.4178 1.41694 10.596 1.73756 9.84928C2.05819 9.10253 2.60115 8.46426 3.29778 8.0152C3.99441 7.56615 4.81341 7.32648 5.65124 7.32648V8.55599C5.06547 8.55599 4.49285 8.72356 4.0058 9.03752C3.51875 9.35148 3.13911 9.79776 2.91494 10.3199C2.69079 10.8419 2.6322 11.4164 2.74648 11.9707C2.86075 12.5249 3.14275 13.0341 3.55695 13.4337C3.97115 13.8333 4.49894 14.1053 5.07345 14.2156C5.64796 14.3258 6.24344 14.2693 6.78461 14.0531C7.32579 13.8368 7.78839 13.4705 8.11383 13.0007C8.42963 12.5447 8.60201 12.0166 8.61246 11.4711L8.61296 11.4183V1.11476Z" fill="#0A0A0A"/>
</svg>

<svg xmlns="http://www.w3.org/2000/svg" width="16" height="16" viewBox="0 0 16 16"><path d="M8.613 1.115c0-.34.285-.615.637-.615s.637.275.637.615c0 1.202.495 2.355 1.376 3.205a4.8 4.8 0 0 0 3.322 1.329v1.23a6.1 6.1 0 0 1-4.223-1.69 6 6 0 0 1-.475-.516v6.753a3.97 3.97 0 0 1-.713 2.258 4.2 4.2 0 0 1-1.902 1.505 4.4 4.4 0 0 1-2.447.232 4.3 4.3 0 0 1-2.17-1.118 4.05 4.05 0 0 1-1.158-2.093 3.95 3.95 0 0 1 .24-2.36 4.1 4.1 0 0 1 1.56-1.835 4.35 4.35 0 0 1 2.354-.689v1.23a3.04 3.04 0 0 0-1.645.482c-.487.313-.867.76-1.091 1.282a2.76 2.76 0 0 0-.169 1.65c.115.555.397 1.064.811 1.464s.942.671 1.516.782 1.17.053 1.712-.163a2.94 2.94 0 0 0 1.329-1.052c.316-.456.488-.984.498-1.53l.001-.053z"/></svg>
